out/images/iconCarrier.svg

<svg fill="none" height="91" viewBox="0 0 97 91" width="97" xmlns="http://www.w3.org/2000/svg"><g fill="#fff"><path d="m46.7446 18.937c2.3673.0021 4.6384-.9938 6.3139-2.7687 1.6755-1.775 2.6181-4.1836 2.6205-6.69604-.001-1.24396-.2329-2.47553-.6825-3.62434-.4496-1.14882-1.108-2.19235-1.9377-3.071s-1.8144-1.57518-2.8978-2.049809-2.2444-.71805182-3.4164-.7163601c-4.9358 0-8.936 4.2358691-8.936 9.4615091.0032 2.51254.9463 4.92084 2.622 6.69564 1.6756 1.7748 3.9467 2.7708 6.314 2.7691z"/><path d="m73.9679 82.921h-71.22985c-2.00615 0-1.799924 1.6737-1.799924 1.6737v2.7858s-.181964 3.6195 3.320844 3.6195h89.18813c3.5256 0 3.3345-3.5358 3.3345-3.5358v-7.7153s-.2987-2.4398-3.0024-2.4398h-8.6918c-2.9797 0-5.4423 5.6103-11.118 5.6103z"/><path d="m80.8947 65.8261c0 4.7026 3.6059 8.5217 8.0488 8.5217 4.4415 0 8.0565-3.8207 8.0565-8.5217 0-4.7203-3.615-8.5248-8.0565-8.5248-1.0561-.0021-2.1023.2168-3.0786.6442-.9764.4275-1.8637 1.0551-2.6113 1.8469s-1.3408 1.7322-1.7455 2.7676c-.4048 1.0353-.6132 2.1452-.6134 3.2661z"/><path d="m54.5842 49.5667c-.2676.8669-.7159 1.6585-1.3116 2.3161s-1.3234 1.1642-2.129 1.482l-7.1679 2.8212 2.6446 2.7859h12.1006l-.0076-19.6585-4.0502 10.1342c-.0198.0483-.0561.0756-.0804.1191z"/><path d="m71.9633 63.6422h-25.0201l-6.0321-6.2508-4.1988 1.6415c-3.1146 1.1829-6.9071-.6228-8.0762-3.9075-.6884-2.0391-.5929-4.3164.5565-5.9756-.514-.0242-15.1742 0-15.1742 0-.5788-.0019-1.1523.1172-1.6878.3506-.5354.2334-1.0222.5764-1.4327 1.0095s-.7365.9478-.95954 1.5147c-.22302.5669-.33862 1.1748-.34021 1.7891 0 2.5863 1.98185 4.6077 4.42025 4.6077h14.9256l5.9183 9.5098-30.55627 2.6055c-1.05757.2563-1.98907.9173-2.61648 1.8565s-.906739 2.0909-.784597 3.2349c.122147 1.144.637187 2.2001 1.446707 2.9665.80951.7664 1.85673 1.1893 2.94152 1.188l34.28352.0048c-.6193-1.0507-.9496-2.2642-.9538-3.5036.0012-1.7808.6683-3.4882 1.8547-4.7474 1.1865-1.2592 2.7953-1.9672 4.4731-1.9685h13.7171l11.1165-2.4639.6171 3.1334-11.4228 2.5315h-14.0294c-.8769-.0093-1.7214.3514-2.3478 1.0028-.6263.6515-.9831 1.5404-.992 2.4711-.0088.9307.331 1.827.9448 2.4918.6139.6647 1.4514 1.0434 2.3283 1.0528l27.1399.0032c2.0104-.0093 3.9355-.8634 5.3541-2.3753 1.4186-1.512 2.2152-3.5587 2.2156-5.6924-.0002-1.0626-.1977-2.1147-.5814-3.0961-.3836-.9814-.9457-1.873-1.6543-2.6236-.7085-.7507-1.5496-1.3457-2.475-1.7511s-1.917-.6116-2.9181-.6099z"/><path d="m36.1831 56.1006c-.8493.3941-1.8112.4146-2.6748.0571s-1.5583-1.0638-1.9319-1.9642c-.1855-.4465-.286-.9275-.2959-1.4154-.0098-.4879.0712-.973.2384-1.4276s.4174-.8696.7361-1.2213c.3188-.3517.6998-.6332 1.1213-.8282l12.739-5.0759 3.9365-9.9653-2.5657-1.0058-3.3466 8.5329-9.6972 3.79v-10.4319l-9.4788 10.9872-10.7268-.0113s18.7711-21.8392 19.358-22.4926c.7779-.8192 2.5566-2.1775 5.9108-2.1775h12.0536c6.8479 0 8.1656 7.2454 6.7645 10.9953l-6.3036 16.2257c-.1918.4659-.4705.8859-.8191 1.2346-.3487.3488-.7602.6191-1.2098.7948l-13.808 5.3962z"/></g></svg>

<svg width="97" height="91" viewBox="0 0 97 91" fill="none" xmlns="http://www.w3.org/2000/svg">
<path d="M46.7446 18.937C49.1119 18.9391 51.383 17.9432 53.0585 16.1683C54.734 14.3933 55.6766 11.9847 55.679 9.47226C55.678 8.2283 55.4461 6.99673 54.9965 5.84792C54.5469 4.6991 53.8885 3.65557 53.0588 2.77692C52.2291 1.89827 51.2444 1.20174 50.161 0.727111C49.0776 0.252482 47.9166 0.00905918 46.7446 0.0107509C41.8088 0.0107509 37.8086 4.24662 37.8086 9.47226C37.8118 11.9848 38.7549 14.3931 40.4306 16.1679C42.1062 17.9427 44.3773 18.9387 46.7446 18.937Z" fill="white"/>
<path d="M73.9679 82.921H2.73805C0.7319 82.921 0.938126 84.5947 0.938126 84.5947V87.3805C0.938126 87.3805 0.756162 91 4.25897 91H93.4471C96.9727 91 96.7816 87.4642 96.7816 87.4642V79.7489C96.7816 79.7489 96.4829 77.3091 93.7792 77.3091H85.0874C82.1077 77.3091 79.6451 82.9194 73.9694 82.9194L73.9679 82.921Z" fill="white"/>
<path d="M80.8947 65.8261C80.8947 70.5287 84.5006 74.3478 88.9435 74.3478C93.385 74.3478 97 70.5271 97 65.8261C97 61.1058 93.385 57.3013 88.9435 57.3013C87.8874 57.2992 86.8412 57.5181 85.8649 57.9455C84.8885 58.373 84.0012 59.0006 83.2536 59.7924C82.506 60.5842 81.9128 61.5246 81.5081 62.56C81.1033 63.5953 80.8949 64.7052 80.8947 65.8261Z" fill="white"/>
<path d="M54.5842 49.5667C54.3166 50.4336 53.8683 51.2252 53.2726 51.8828C52.6769 52.5404 51.9492 53.047 51.1436 53.3648L43.9757 56.186L46.6203 58.9719H58.7209L58.7133 39.3134L54.6631 49.4476C54.6433 49.4959 54.607 49.5232 54.5827 49.5667H54.5842Z" fill="white"/>
<path d="M71.9633 63.6422H46.9432L40.9111 57.3914L36.7123 59.0329C33.5977 60.2158 29.8052 58.4101 28.6361 55.1254C27.9477 53.0863 28.0432 50.809 29.1926 49.1498C28.6786 49.1256 14.0184 49.1498 14.0184 49.1498C13.4396 49.1479 12.8661 49.267 12.3306 49.5004C11.7952 49.7338 11.3084 50.0768 10.8979 50.5099C10.4874 50.943 10.1614 51.4577 9.93836 52.0246C9.71534 52.5915 9.59974 53.1994 9.59815 53.8137C9.59815 56.4 11.58 58.4214 14.0184 58.4214H28.944L34.8623 67.9312L4.30603 70.5367C3.24846 70.793 2.31696 71.454 1.68955 72.3932C1.06214 73.3324 0.782811 74.4841 0.904953 75.6281C1.0271 76.7721 1.54214 77.8282 2.35166 78.5946C3.16117 79.361 4.20839 79.7839 5.29318 79.7826L39.5767 79.7874C38.9574 78.7367 38.6271 77.5232 38.6229 76.2838C38.6241 74.503 39.2912 72.7956 40.4776 71.5364C41.6641 70.2772 43.2729 69.5692 44.9507 69.5679H58.6678L69.7843 67.104L70.4014 70.2374L58.9786 72.7689H44.9492C44.0723 72.7596 43.2278 73.1203 42.6014 73.7717C41.9751 74.4232 41.6183 75.3121 41.6094 76.2428C41.6006 77.1735 41.9404 78.0698 42.5542 78.7346C43.1681 79.3993 44.0056 79.778 44.8825 79.7874L72.0224 79.7906C74.0328 79.7813 75.9579 78.9272 77.3765 77.4153C78.7951 75.9033 79.5917 73.8566 79.5921 71.7229C79.5919 70.6603 79.3944 69.6082 79.0107 68.6268C78.6271 67.6454 78.065 66.7538 77.3564 66.0032C76.6479 65.2525 75.8068 64.6575 74.8814 64.2521C73.956 63.8467 72.9644 63.6405 71.9633 63.6422Z" fill="white"/>
<path d="M36.1831 56.1006C35.3338 56.4947 34.3719 56.5152 33.5083 56.1577C32.6447 55.8002 31.95 55.0939 31.5764 54.1935C31.3909 53.747 31.2904 53.266 31.2805 52.7781C31.2707 52.2902 31.3517 51.8051 31.5189 51.3505C31.6861 50.8959 31.9363 50.4809 32.255 50.1292C32.5738 49.7775 32.9548 49.496 33.3763 49.301L46.1153 44.2251L50.0518 34.2598L47.4861 33.254L44.1395 41.7869L34.4423 45.5769V35.145L24.9635 46.1322L14.2367 46.1209C14.2367 46.1209 33.0078 24.2817 33.5947 23.6283C34.3726 22.8091 36.1513 21.4508 39.5055 21.4508H51.5591C58.407 21.4508 59.7247 28.6962 58.3236 32.4461L52.02 48.6718C51.8282 49.1377 51.5495 49.5577 51.2009 49.9064C50.8522 50.2552 50.4407 50.5255 49.9911 50.7012L36.1831 56.0974V56.1006Z" fill="white"/>
</svg>
